Numix-Light/scalable/status/weather-clear-symbolic.svg

<?xml version="1.0" encoding="UTF-8" standalone="no"?>
<svg
   xmlns:dc="http://purl.org/dc/elements/1.1/"
   xmlns:cc="http://creativecommons.org/ns#"
   xmlns:rdf="http://www.w3.org/1999/02/22-rdf-syntax-ns#"
   xmlns:svg="http://www.w3.org/2000/svg"
   xmlns="http://www.w3.org/2000/svg"
   xmlns:sodipodi="http://sodipodi.sourceforge.net/DTD/sodipodi-0.dtd"
   xmlns:inkscape="http://www.inkscape.org/namespaces/inkscape"
   width="16"
   viewBox="0 0 16 16"
   height="16"
   style="enable-background:new"
   id="svg2"
   version="1.1"
   inkscape:version="0.91 r"
   sodipodi:docname="weather-clear-symbolic.svg">
  <metadata
     id="metadata34">
    <rdf:RDF>
      <cc:Work
         rdf:about="">
        <dc:format>image/svg+xml</dc:format>
        <dc:type
           rdf:resource="http://purl.org/dc/dcmitype/StillImage" />
      </cc:Work>
    </rdf:RDF>
  </metadata>
  <sodipodi:namedview
     pagecolor="#ffffff"
     bordercolor="#666666"
     borderopacity="1"
     objecttolerance="10"
     gridtolerance="10"
     guidetolerance="10"
     inkscape:pageopacity="0"
     inkscape:pageshadow="2"
     inkscape:window-width="640"
     inkscape:window-height="480"
     id="namedview32" />
  <defs
     id="defs4" />
  <path
     style="fill:#353535"
     d="M 6.4312519,1.12e-5 C 6.1921936,1.9796846 5.0506095,2.4457041 3.4875056,1.2125096 4.0242351,3.1329732 3.1473001,3.997406 1.2312585,3.4562568 2.4620632,5.0251368 1.9835417,6.1542232 0.00626,6.387503 1.7437582,7.3659517 1.7375077,8.5965442 0,9.5687529 1.9796754,9.8078125 2.4456907,10.949391 1.2124987,12.512509 3.1329639,11.975769 3.9973876,12.852689 3.456246,14.768746 5.0251287,13.537927 6.1542027,14.016447 6.387497,15.993744 7.3659354,14.256186 8.5965256,14.262507 9.5687428,16 9.8077821,14.020302 10.949369,13.554303 12.512489,14.787501 11.975737,12.867023 12.852675,12.002605 14.768735,12.543744 13.53792,10.974792 14.016455,9.8457525 15.993748,9.6124528 14.25622,8.63398 14.262497,7.4034117 16.000004,6.4311929 14.020281,6.1921392 13.554302,5.0505706 14.78749,3.4874467 12.866997,4.024192 12.002607,3.1472591 12.543744,1.2311997 10.974844,2.462028 9.8457971,1.9834947 9.6124978,0.0062012 8.6340504,1.743695 7.4034487,1.737449 6.4312519,-3.88e-5 z"
     id="path30" />
</svg>

<svg xmlns="http://www.w3.org/2000/svg" viewBox="0 0 16 16" style="enable-background:new">
 <path d="m 6.431 0 c -0.239 1.98 -1.381 2.446 -2.944 1.212 0.537 1.92 -0.34 2.785 -2.256 2.244 1.231 1.569 0.752 2.698 -1.225 2.931 1.737 0.978 1.731 2.209 -0.006 3.181 1.98 0.239 2.446 1.381 1.212 2.944 1.92 -0.537 2.785 0.34 2.244 2.256 1.569 -1.231 2.698 -0.752 2.931 1.225 0.978 -1.738 2.209 -1.731 3.181 0.006 0.239 -1.98 1.381 -2.446 2.944 -1.212 -0.537 -1.92 0.34 -2.785 2.256 -2.244 -1.231 -1.569 -0.752 -2.698 1.225 -2.931 -1.738 -0.978 -1.731 -2.209 0.006 -3.181 -1.98 -0.239 -2.446 -1.381 -1.213 -2.944 -1.92 0.537 -2.785 -0.34 -2.244 -2.256 -1.569 1.231 -2.698 0.752 -2.931 -1.225 -0.978 1.737 -2.209 1.731 -3.181 -0.006 z" style="fill:#353535"/>
</svg>
